src/topics/icons/brandfolder.svg

<svg height="241" preserveAspectRatio="xMidYMid" viewBox="0 0 256 241" width="256" xmlns="http://www.w3.org/2000/svg"><path d="m0 240.881233h209.07898v-31.763628h-177.2972722v-177.3309664h177.3391842v116.3792504h-15.164788l31.020715 31.024003 31.023181-31.024003h-15.119589v-148.165889h-240.880411zm80.6430119-189.5093112c4.0917726-.6574449 8.8155142-1.1554594 14.1794427-1.5408864 5.3828304-.3846053 12.0838374-.5736207 20.1284974-.5736207 7.021511 0 13.677319.5736207 19.925511 1.7290801 6.27038 1.139845 11.725529 3.0883473 16.379417 5.836467 4.655532 2.7555159 8.336401 6.4100876 11.019598 11.0228854 2.680732 4.5914307 4.020276 10.3366772 4.020276 17.2447794 0 4.0843764-.591701 7.8827642-1.822766 11.4009162-1.200659 3.4951414-2.835231 6.5686962-4.880707 9.2034062-2.047119 2.612522-4.338314 4.772229-6.904815 6.493912-2.54842 1.728259-5.160942 2.793319-7.841673 3.155736 2.933026.392001 6.179982 1.298453 9.770452 2.710316 3.567461 1.3831 6.885092 3.472953 9.951251 6.221073 3.070267 2.748119 5.636768 6.2975 7.678134 10.630883 2.046297 4.341602 3.068624 9.565824 3.068624 15.704715 0 8.312569-1.566362 15.108084-4.703196 20.415308-3.132725 5.300649-7.338729 9.475424-12.65828 12.548979-5.291609 3.064515-11.426392 5.171626-18.376406 6.311471-6.973025 1.155459-14.289565 1.72908-21.944689 1.72908-5.885775 0-11.677043-.158609-17.426398-.475826-5.7682575-.316395-12.2687438-.936037-19.5622731-1.819478zm27.7885521 116.8690472v-39.857596h11.495424c3.974254 0 7.564725.324613 10.83387.959047 3.251065.633613 6.070681 1.752091 8.430087 3.367762 2.362692 1.585264 4.178884 3.699771 5.455149 6.311471 1.272156 2.612521 1.9296 5.903855 1.9296 9.860851 0 4.220796-.842351 7.633757-2.499112 10.268468-1.657583 2.612521-3.77209 4.657997-6.316402 6.138069-2.5665 1.449666-5.319551 2.445695-8.248468 2.951928-2.929738.521025-5.745246.770032-8.430087.770032-1.928779 0-4.061366-.067388-6.42488-.181619-2.366802-.134776-4.432-.323791-6.225181-.588413zm8.425978-60.937745h-8.425978v-36.7766453c2.430902-.3854271 5.428851-.5736207 9.015213-.5736207 2.548421 0 5.13711.2112042 7.749631.6640194 2.612522.4528151 4.976036 1.343653 7.089722 2.6807315 2.11122 1.343653 3.835369 3.2009348 5.179844 5.5644492 1.341187 2.3626925 1.996989 5.38283 1.996989 9.0899974 0 3.8353691-.566225 6.9993226-1.702783 9.498435-1.158746 2.4917161-2.748941 4.4689815-4.794417 5.9268655-2.042188 1.471855-4.455011 2.499113-7.202308 3.065337-2.725931.589235-5.700048.860431-8.905913.860431z" fill="#40d1f6" fill-rule="evenodd"/></svg>

<?xml version="1.0" encoding="UTF-8" standalone="no"?>
<svg width="256px" height="241px" viewBox="0 0 256 241" version="1.1" xmlns="http://www.w3.org/2000/svg" xmlns:xlink="http://www.w3.org/1999/xlink" preserveAspectRatio="xMidYMid">
    <g fill-rule="evenodd">
        <path d="M0,240.881233 L209.07898,240.881233 L209.07898,209.117605 L31.7817078,209.117605 L31.7817078,31.7866386 L209.120892,31.7866386 L209.120892,148.165889 L193.956104,148.165889 L224.976819,179.189892 L256,148.165889 L240.880411,148.165889 L240.880411,0 L0,0 L0,240.881233 L0,240.881233 Z M80.6430119,51.3719218 C84.7347845,50.7144769 89.4585261,50.2164624 94.8224546,49.8310354 C100.205285,49.4464301 106.906292,49.2574147 114.950952,49.2574147 C121.972463,49.2574147 128.628271,49.8310354 134.876463,50.9864948 C141.146843,52.1263398 146.601992,54.0748421 151.25588,56.8229618 C155.911412,59.5784777 159.592281,63.2330494 162.275478,67.8458472 C164.95621,72.4372779 166.295754,78.1825244 166.295754,85.0906266 C166.295754,89.175003 165.704053,92.9733908 164.472988,96.4915428 C163.272329,99.9866842 161.637757,103.060239 159.592281,105.694949 C157.545162,108.307471 155.253967,110.467178 152.687466,112.188861 C150.139046,113.91712 147.526524,114.98218 144.845793,115.344597 C147.778819,115.736598 151.025775,116.64305 154.616245,118.054913 C158.183706,119.438013 161.501337,121.527866 164.567496,124.275986 C167.637763,127.024105 170.204264,130.573486 172.24563,134.906869 C174.291927,139.248471 175.314254,144.472693 175.314254,150.611584 C175.314254,158.924153 173.747892,165.719668 170.611058,171.026892 C167.478333,176.327541 163.272329,180.502316 157.952778,183.575871 C152.661169,186.640386 146.526386,188.747497 139.576372,189.887342 C132.603347,191.042801 125.286807,191.616422 117.631683,191.616422 C111.745908,191.616422 105.95464,191.457813 100.205285,191.140596 C94.4370275,190.824201 87.9365412,190.204559 80.6430119,189.321118 L80.6430119,51.3719218 L80.6430119,51.3719218 Z M108.431564,168.240969 L108.431564,128.383373 L119.926988,128.383373 C123.901242,128.383373 127.491713,128.707986 130.760858,129.34242 C134.011923,129.976033 136.831539,131.094511 139.190945,132.710182 C141.553637,134.295446 143.369829,136.409953 144.646094,139.021653 C145.91825,141.634174 146.575694,144.925508 146.575694,148.882504 C146.575694,153.1033 145.733343,156.516261 144.076582,159.150972 C142.418999,161.763493 140.304492,163.808969 137.76018,165.289041 C135.19368,166.738707 132.440629,167.734736 129.511712,168.240969 C126.581974,168.761994 123.766466,169.011001 121.081625,169.011001 C119.152846,169.011001 117.020259,168.943613 114.656745,168.829382 C112.289943,168.694606 110.224745,168.505591 108.431564,168.240969 L108.431564,168.240969 Z M116.857542,107.303224 L108.431564,107.303224 L108.431564,70.5265787 C110.862466,70.1411516 113.860415,69.952958 117.446777,69.952958 C119.995198,69.952958 122.583887,70.1641622 125.196408,70.6169774 C127.80893,71.0697925 130.172444,71.9606304 132.28613,73.2977089 C134.39735,74.6413619 136.121499,76.4986437 137.465974,78.8621581 C138.807161,81.2248506 139.462963,84.2449881 139.462963,87.9521555 C139.462963,91.7875246 138.896738,94.9514781 137.76018,97.4505905 C136.601434,99.9423066 135.011239,101.919572 132.965763,103.377456 C130.923575,104.849311 128.510752,105.876569 125.763455,106.442793 C123.037524,107.032028 120.063407,107.303224 116.857542,107.303224 L116.857542,107.303224 Z" fill="#40D1F6"></path>
    </g>
</svg>
